public/images/hashed/13bf8409b27623eccf7d9ea8d8a7cafd.svg

<?xml version="1.0" encoding="UTF-8"?>
<svg width="80px" height="80px" viewBox="0 0 80 80" version="1.1" xmlns="http://www.w3.org/2000/svg" xmlns:xlink="http://www.w3.org/1999/xlink">
    <!-- Generator: Sketch 64 (93537) - https://sketch.com -->
    <title>Icon-Architecture/64/Arch_Amazon-Polly_64</title>
    <desc>Created with Sketch.</desc>
    <defs>
        <linearGradient x1="0%" y1="100%" x2="100%" y2="0%" id="linearGradient-1">
            <stop stop-color="#055F4E" offset="0%"></stop>
            <stop stop-color="#56C0A7" offset="100%"></stop>
        </linearGradient>
    </defs>
    <g id="Icon-Architecture/64/Arch_Amazon-Polly_64" stroke="none" stroke-width="1" fill="none" fill-rule="evenodd">
        <g id="Icon-Architecture-BG/64/Machine-Learning" fill="url(#linearGradient-1)">
            <rect id="Rectangle" x="0" y="0" width="80" height="80"></rect>
        </g>
        <path d="M40.0225189,39.0044816 L47.029358,39.0044816 L47.029358,37.0044445 L40.0225189,37.0044445 L40.0225189,39.0044816 Z M43.025021,50.0046853 L45.0266891,50.0046853 L45.0266891,45.0045927 L43.025021,45.0045927 L43.025021,50.0046853 Z M28.0125105,33.0043705 L32.0158466,33.0043705 L32.0158466,31.0043334 L28.0125105,31.0043334 L28.0125105,33.0043705 Z M17.0033361,44.0045742 L32.0158466,44.0045742 L32.0158466,42.0045371 L17.0033361,42.0045371 L17.0033361,44.0045742 Z M17.0033361,39.0044816 L38.0208508,39.0044816 L38.0208508,37.0044445 L17.0033361,37.0044445 L17.0033361,39.0044816 Z M40.0225189,52.0047223 L42.024187,52.0047223 L42.024187,43.0045556 L40.0225189,43.0045556 L40.0225189,52.0047223 Z M55.0350294,52.0047223 L57.0366975,52.0047223 L57.0366975,44.0045742 L55.0350294,44.0045742 L55.0350294,52.0047223 Z M52.0325273,54.0047593 L54.0341954,54.0047593 L54.0341954,41.0045186 L52.0325273,41.0045186 L52.0325273,54.0047593 Z M49.0300252,53.0047408 L51.0316933,53.0047408 L51.0316933,42.0045371 L49.0300252,42.0045371 L49.0300252,53.0047408 Z M46.0285239,52.0047223 L48.030192,52.0047223 L48.030192,43.0045556 L46.0285239,43.0045556 L46.0285239,52.0047223 Z M66.856881,65.1249653 L62.292077,56.1967999 C63.8773981,53.5777514 64.7120937,50.5646956 64.7120937,47.4476379 C64.7120937,38.0154632 57.0356966,30.3403211 47.6008342,30.3403211 C44.8045039,30.3403211 42.0371978,31.0253338 39.5971644,32.3203578 L40.5359468,34.0873905 C42.6877399,32.9443693 45.1307758,32.3403582 47.6008342,32.3403582 C55.9317767,32.3403582 62.7104256,39.1174837 62.7104256,47.4476379 C62.7104256,50.3746921 61.8787325,53.1927443 60.3044206,55.5987889 C60.1072563,55.8987944 60.0872396,56.2818015 60.2503756,56.6018074 L64.0895749,64.1099465 L56.4502087,60.2888757 C56.1439535,60.1358729 55.7776483,60.1498731 55.4824022,60.3288765 C53.0954131,61.7779033 50.370142,62.5439175 47.6008342,62.5439175 C40.0795664,62.5439175 33.6412011,56.9408137 32.6243537,49.5116761 L30.6407007,49.7816811 C31.7926606,58.197837 39.0837366,64.5439545 47.6008342,64.5439545 C50.5522938,64.5439545 53.457715,63.7769403 56.0398668,62.3199133 L65.1434531,66.8729976 C65.3216016,66.9579992 65.5137617,67 65.7029194,67 C66.0482071,67 66.386489,66.8629975 66.6376984,66.6039927 C67.0230195,66.2059853 67.1090912,65.6089742 66.856881,65.1249653 L66.856881,65.1249653 Z M17.0033361,33.0043705 L26.0108424,33.0043705 L26.0108424,31.0043334 L17.0033361,31.0043334 L17.0033361,33.0043705 Z M31.0150126,24.0042038 L38.6073396,24.0042038 L31.0150126,16.4180633 L31.0150126,24.0042038 Z M15.0016681,39.0044816 L13,39.0044816 L13,14.0040186 C13,13.4520084 13.4473728,13.0040001 14.000834,13.0040001 L30.0141786,13 C30.2753963,13 30.5316098,13.106002 30.7217682,13.2970055 L41.7309426,24.2972092 C41.9221019,24.4892128 42.024187,24.7452175 42.024187,25.0042223 L42.024187,28.0042779 L40.0225189,28.0042779 L40.0225189,26.0042408 L30.0141786,26.0042408 C29.4607174,26.0042408 29.0133445,25.5572325 29.0133445,25.0042223 L29.0133445,15.000037 L15.0016681,15.0040371 L15.0016681,39.0044816 Z M15.0016681,52.0047223 L29.0133445,52.0047223 L29.0133445,54.0047593 L14.000834,54.0047593 C13.4473728,54.0047593 13,53.5577511 13,53.0047408 L13,44.0045742 L15.0016681,44.0045742 L15.0016681,52.0047223 Z" id="Amazon-Polly-Icon_64_Squid" fill="#FFFFFF"></path>
    </g>
</svg>

<svg xmlns="http://www.w3.org/2000/svg" width="80" height="80"><defs><linearGradient id="a" x1="0%" x2="100%" y1="100%" y2="0%"><stop offset="0%" stop-color="#055F4E"/><stop offset="100%" stop-color="#56C0A7"/></linearGradient></defs><g fill="none" fill-rule="evenodd"><path fill="url(#a)" d="M0 0h80v80H0z"/><path fill="#FFF" d="M40.023 39.004h7.006v-2h-7.006v2Zm3.002 11h2.002v-5h-2.002v5Zm-15.012-17h4.003v-2h-4.003v2Zm-11.01 11h15.013v-2H17.003v2Zm0-5h21.018v-2H17.003v2Zm23.02 13h2.001v-9h-2.001v9Zm15.012 0h2.002v-8h-2.002v8Zm-3.002 2h2.001v-13h-2.001v13Zm-3.003-1h2.002v-11H49.03v11Zm-3.001-1h2.001v-9H46.03v9Zm20.828 13.121-4.565-8.928a16.851 16.851 0 0 0 2.42-8.75c0-9.432-7.676-17.107-17.111-17.107-2.796 0-5.564.685-8.004 1.98l.939 1.767A15.108 15.108 0 0 1 47.6 32.34c8.33 0 15.11 6.777 15.11 15.108 0 2.927-.832 5.745-2.407 8.15a1 1 0 0 0-.054 1.004l3.84 7.508-7.64-3.821a1.004 1.004 0 0 0-.968.04 15.191 15.191 0 0 1-7.881 2.215c-7.521 0-13.96-5.603-14.977-13.032l-1.983.27c1.152 8.416 8.443 14.762 16.96 14.762 2.951 0 5.857-.767 8.439-2.224l9.103 4.553a1.302 1.302 0 0 0 1.495-.269 1.28 1.28 0 0 0 .219-1.479Zm-49.854-32.12h9.008v-2h-9.008v2Zm14.012-9h7.592l-7.592-7.587v7.586Zm-16.013 15H13V14.003a1 1 0 0 1 1-1L30.015 13c.261 0 .518.106.708.297l11.009 11c.191.192.293.448.293.707v3h-2.001v-2H30.014a1 1 0 0 1-1-1V15l-14.012.004v24Zm0 13h14.011v2H14.001a1 1 0 0 1-1.001-1v-9h2.002v8Z"/></g></svg>
